img/image/content/forwho-3.svg

<svg width="26" height="30" viewBox="0 0 26 30" fill="none" xmlns="http://www.w3.org/2000/svg">
<path d="M21.0264 22.1662L16.2175 20.1989C15.6864 19.9819 15.3438 19.4709 15.3438 18.8972V18.5606C16.7861 17.5641 17.8877 16.1578 18.512 14.5312H18.625C19.9173 14.5312 20.9688 13.4798 20.9688 12.1875C20.9688 11.895 20.9083 11.6175 20.8098 11.3588L21.0095 11.1656C21.4516 10.7489 21.7333 10.2089 21.8008 10.0725C22.3966 9.13031 22.5367 7.99172 22.1847 6.94266C21.8612 5.97656 21.1539 5.18813 20.223 4.74281C20.0716 3.74484 19.5166 2.85 18.6714 2.25516C17.8263 1.65984 16.7777 1.425 15.7558 1.59891C15.032 0.8775 14.043 0.46875 13 0.46875C11.957 0.46875 10.968 0.8775 10.2438 1.59891C9.22281 1.42687 8.17375 1.66031 7.32859 2.25516C6.48297 2.85 5.92844 3.74484 5.77656 4.74281C4.84609 5.18813 4.13875 5.97703 3.81484 6.94219C3.46281 7.99125 3.60344 9.13031 4.19875 10.0725C4.26484 10.2066 4.53719 10.7292 4.96516 11.1422L5.20234 11.317C5.09453 11.587 5.03125 11.8795 5.03125 12.1875C5.03125 13.4798 6.08266 14.5312 7.375 14.5312H7.48797C8.11234 16.1583 9.21391 17.5641 10.6562 18.5606V18.8972C10.6562 19.4709 10.3136 19.9814 9.7825 20.1984L4.97359 22.1658C2.16109 23.3166 0.34375 26.0241 0.34375 29.0625V29.5312H25.6562V29.0625C25.6562 26.0241 23.8389 23.3166 21.0264 22.1662ZM17.1784 23.7019L15.273 25.1311L16.5358 21.3422L16.8025 21.4514L17.1784 23.7019ZM9.19703 21.4514L9.46375 21.3422L10.7266 25.1311L8.82109 23.7019L9.19703 21.4514ZM10.7748 25.2759L11.8811 28.5938H11.7878L9.85328 26.6592L10.7748 25.2759ZM10.3281 20.9719C10.4327 20.9175 10.532 20.8566 10.6258 20.7886L13 23.1628L15.3742 20.7886C15.468 20.8566 15.5669 20.9175 15.6719 20.9719L13.1312 28.5938H12.8687L10.3281 20.9719ZM15.2252 25.2759L16.1467 26.6592L14.2122 28.5938H14.1189L15.2252 25.2759ZM18.0658 12.5859C18.032 12.8067 17.9875 13.0289 17.9294 13.2633C17.7503 13.4742 17.4953 13.5938 17.2188 13.5938H15.2753C14.9177 13.5938 14.5966 13.395 14.4367 13.0758L14.2272 12.6562H11.7728L11.5633 13.0758C11.4034 13.395 11.0819 13.5938 10.7247 13.5938H8.78125C8.50469 13.5938 8.24969 13.4742 8.07062 13.2633C8.0125 13.0289 7.96797 12.8063 7.93422 12.5859H7.93328C7.87516 12.2025 7.84375 11.8111 7.84375 11.4145V10.3125H18.1562V11.4145C18.1562 11.8116 18.1248 12.2025 18.0662 12.5859H18.0658ZM18.1562 9.375H15.0691L16.3539 8.09016L18.1562 9.17156V9.375ZM7.84375 9.375V9.17156L9.64609 8.08969L10.9309 9.375H7.84375ZM11.2811 9.375L13 8.08594L14.7189 9.375H11.2811ZM18.8191 13.5741C18.8467 13.4663 18.8702 13.3566 18.8936 13.2473C18.9109 13.1672 18.9269 13.0875 18.9414 13.0083C19.038 12.4889 19.0938 11.9573 19.0938 11.4145V10.868C19.638 11.062 20.0312 11.5777 20.0312 12.188C20.0312 12.8967 19.502 13.4784 18.8191 13.5741ZM5.59469 10.4461C5.25203 10.1048 5.03688 9.65063 5.035 9.64688L5.00406 9.59016C4.54984 8.88422 4.44063 8.02781 4.70453 7.24031C4.96938 6.44906 5.58156 5.81484 6.38359 5.50031L6.65875 5.39297L6.67984 5.09812C6.74031 4.26797 7.17344 3.51094 7.86859 3.02156C8.56844 2.52891 9.45484 2.36203 10.2977 2.56594L10.5752 2.6325L10.7617 2.41734C11.3186 1.77469 12.1342 1.40625 13 1.40625C13.8658 1.40625 14.6814 1.77469 15.2383 2.41734L15.4248 2.6325L15.7023 2.56594C16.5447 2.36156 17.4311 2.52891 18.1319 3.02156C18.8266 3.51094 19.2597 4.2675 19.3202 5.09812L19.3412 5.39297L19.6164 5.50031C20.4184 5.81484 21.0306 6.44906 21.2955 7.24078C21.5594 8.02781 21.4502 8.88422 20.9959 9.59016L20.965 9.64688C20.9627 9.65156 20.7302 10.1414 20.3622 10.4883L20.2975 10.5506C19.9759 10.222 19.5606 9.98625 19.0933 9.89109V8.64094L16.2081 6.91031L14.8309 8.2875L13 6.91406L11.1691 8.2875L9.79187 6.91031L6.90625 8.64094V9.89109C6.44641 9.98484 6.03531 10.2136 5.71562 10.5342L5.59469 10.4461ZM5.96875 12.1875C5.96875 11.5772 6.36203 11.0616 6.90625 10.8675V11.4141C6.90625 11.9564 6.96203 12.4884 7.05812 13.0073C7.07312 13.0866 7.08859 13.1667 7.10641 13.2473C7.12984 13.3566 7.15328 13.4658 7.18094 13.5736C6.49797 13.4784 5.96875 12.8967 5.96875 12.1875ZM8.48875 14.505C8.58484 14.5205 8.68234 14.5312 8.78125 14.5312H10.7247C11.402 14.5312 12.0147 14.1745 12.3489 13.5938H13.6516C13.9858 14.1745 14.5984 14.5312 15.2758 14.5312H17.2188C17.3177 14.5312 17.4152 14.5205 17.5112 14.505C16.6727 16.4362 15.0681 17.9878 13 18.7228C10.9319 17.9878 9.32687 16.4362 8.48875 14.505ZM12.8519 19.6631L13 19.7128L13.1481 19.6636C13.592 19.5155 14.0177 19.3345 14.4227 19.1236C14.4564 19.4742 14.5661 19.8042 14.7405 20.0967L13 21.8372L11.2591 20.0963C11.4334 19.8038 11.5431 19.4738 11.5769 19.1231C11.9819 19.3341 12.408 19.5155 12.8519 19.6631ZM5.32891 23.0344L8.17703 21.8691L7.80344 24.1106L9.55141 25.4217L8.64625 26.7787L10.4622 28.5938H5.96875V25.7812H5.03125V28.5938H1.29766C1.4725 26.1305 3.01563 23.9803 5.32891 23.0344ZM20.9688 28.5938V25.7812H20.0312V28.5938H15.5378L17.3533 26.7783L16.4481 25.4212L18.1961 24.1102L17.8225 21.8686L20.6706 23.0339C22.9839 23.9803 24.527 26.13 24.7019 28.5933H20.9688V28.5938Z" fill="white"/>
<path d="M14.875 15H13.9375C13.9375 15.517 13.517 15.9375 13 15.9375C12.483 15.9375 12.0625 15.517 12.0625 15H11.125C11.125 16.0341 11.9659 16.875 13 16.875C14.0341 16.875 14.875 16.0341 14.875 15Z" fill="white"/>
</svg>

<svg width="26" height="30" fill="none" xmlns="http://www.w3.org/2000/svg"><path d="M21.026 22.166 16.218 20.2a1.4 1.4 0 0 1-.874-1.302v-.336a8.676 8.676 0 0 0 3.168-4.03h.113a2.346 2.346 0 0 0 2.344-2.344c0-.292-.06-.57-.16-.828l.2-.193c.443-.417.724-.957.792-1.094.596-.942.736-2.08.384-3.13a3.77 3.77 0 0 0-1.962-2.2 3.723 3.723 0 0 0-1.552-2.487 3.92 3.92 0 0 0-2.915-.656A3.898 3.898 0 0 0 13 .469a3.9 3.9 0 0 0-2.756 1.13 3.93 3.93 0 0 0-2.915.656 3.724 3.724 0 0 0-1.552 2.488 3.775 3.775 0 0 0-1.962 2.2 3.657 3.657 0 0 0 .384 3.13c.066.134.338.656.766 1.07l.237.174a2.34 2.34 0 0 0-.17.87 2.346 2.346 0 0 0 2.343 2.344h.113a8.674 8.674 0 0 0 3.168 4.03v.336a1.4 1.4 0 0 1-.873 1.301l-4.81 1.968a7.425 7.425 0 0 0-4.63 6.896v.47h25.313v-.47a7.424 7.424 0 0 0-4.63-6.896Zm-3.848 1.536-1.905 1.43 1.263-3.79.266.11.376 2.25Zm-7.981-2.25.267-.11 1.263 3.79-1.906-1.43.376-2.25Zm1.578 3.824 1.106 3.318h-.093l-1.935-1.935.922-1.383Zm-.447-4.304c.105-.055.204-.115.298-.183L13 23.163l2.374-2.374c.094.068.193.128.298.183l-2.54 7.622h-.263l-2.54-7.622Zm4.897 4.304.922 1.383-1.935 1.935h-.093l1.106-3.318Zm2.84-12.69a7.53 7.53 0 0 1-.136.677.925.925 0 0 1-.71.33h-1.944a.933.933 0 0 1-.838-.517l-.21-.42h-2.454l-.21.42a.933.933 0 0 1-.838.518H8.78a.925.925 0 0 1-.71-.33 7.814 7.814 0 0 1-.227-1.849v-1.103h10.312v1.103c0 .397-.031.788-.09 1.17Zm.091-3.211H15.07l1.285-1.285 1.802 1.082v.203Zm-10.312 0v-.203L9.646 8.09l1.285 1.285H7.844Zm3.437 0L13 8.085l1.719 1.29H11.28Zm7.538 4.2a8.458 8.458 0 0 0 .122-.567c.097-.52.153-1.05.153-1.593v-.547c.544.194.937.71.937 1.32 0 .709-.529 1.29-1.212 1.386ZM5.595 10.445c-.343-.341-.558-.795-.56-.8l-.03-.056a2.724 2.724 0 0 1-.3-2.35A2.85 2.85 0 0 1 6.384 5.5l.275-.107.02-.295c.061-.83.494-1.587 1.19-2.076.7-.493 1.586-.66 2.429-.456l.277.067.187-.216A2.954 2.954 0 0 1 13 1.407c.866 0 1.681.368 2.238 1.01l.187.216.277-.067a2.997 2.997 0 0 1 2.43.456 2.785 2.785 0 0 1 1.188 2.076l.021.295.275.107a2.85 2.85 0 0 1 1.68 1.74 2.723 2.723 0 0 1-.3 2.35l-.031.057c-.002.005-.235.494-.603.841l-.064.063a2.338 2.338 0 0 0-1.205-.66v-1.25l-2.885-1.73-1.377 1.377L13 6.913l-1.83 1.373L9.791 6.91 6.906 8.64v1.251c-.46.094-.87.323-1.19.643l-.121-.088Zm.374 1.742c0-.61.393-1.126.937-1.32v.546a8.741 8.741 0 0 0 .2 1.833c.024.11.047.219.075.327a1.403 1.403 0 0 1-1.212-1.386Zm2.52 2.317c.096.015.193.026.292.026h1.944c.677 0 1.29-.357 1.624-.937h1.303c.334.58.946.937 1.624.937h1.943c.099 0 .196-.01.292-.026A7.74 7.74 0 0 1 13 18.723a7.74 7.74 0 0 1-4.511-4.218Zm4.363 5.158.148.05.148-.05c.444-.148.87-.329 1.275-.54.033.351.143.681.318.974L13 21.837l-1.74-1.74c.173-.293.283-.623.317-.974.405.211.831.392 1.275.54Zm-7.523 3.371 2.848-1.165-.374 2.242 1.748 1.31-.905 1.358 1.816 1.815H5.97V25.78H5.03v2.813H1.298a6.487 6.487 0 0 1 4.03-5.56Zm15.64 5.56V25.78h-.938v2.813h-4.493l1.815-1.816-.905-1.357 1.748-1.31-.373-2.242 2.848 1.165a6.488 6.488 0 0 1 4.03 5.56H20.97Z" fill="#fff"/><path d="M14.875 15h-.938a.938.938 0 0 1-1.874 0h-.938c0 1.034.84 1.875 1.875 1.875 1.034 0 1.875-.84 1.875-1.875Z" fill="#fff"/></svg>
